X:1
T:Wenynen, Y
T:Bee, The
M:3/4
L:1/8
Q:"Allegro moderato"
R:Air
B:Nicholas Bennett – Alawon fy Ngwlad (1896, p. 48)
Z:AK/Fiddler’s Companion
K:C
G2|(c>d) c2 e2|d4 e2|f2e2 (dc)|(c2B2) B2|
c2 d2e2|(G>A G2) e2|(d>e) c2B2|[E4c4]||
c2|(G2F2E2)|(e2d2c2)|f2e2 (dc)|d4 d2|
e2d2c2|(G>A) G2e2|(d>e) c2B2|[E4c4]||

